X:207 
T:Theresa Ryan's* (hornpipe)
F:file ID: cre.5/207ther_r
B:CRE5.217 (An TrÃÂÃÂÃÂÃÂ­ is a Rian)
N:Even the usually-dependable Paul de Grae doesn't know what the Gaelic title means, so
I made up a musician (a flute player, no less) to cover it! (If there's a real Theresa 
Ryan out there playing trad music, this tune is dedicated to her.)
M:C|
Q:140
R:hornpipe
K:G
BA |: G2BG EFGA|BcBA BcBA|GABG EFGB|A2GE DcBA|
G2BG EFGA|Bdef gafg|ecAG FAdc|1 BGAF G2 (3DEF:|\
[2 BGAF G2||
|:Bc|d3f g3e|d3B G2AG|c2ec BcdB|A2GE DcBA|
G2BG EFGA|Bdef gafg|ecAG FAdc|1 BGAF G2:|\
[2 BGAF G4-|G8|]

%%%

